X:1
T:Title
%%score { 1 | ( 2 3 4 ) }
L:1/8
M:4/4
K:G
V:1 treble nm="Grand Piano"
V:2 treble 
V:3 treble 
V:4 treble 
V:1
 z8[Q:1/4=110] | [B,A]2 [B,G]2 [B,F]2 [B,E]2 | [B,D]3 E [B,D]2 z2 | [B,A]2 [B,G]2 [B,F]2 [B,G]2 | %4
[M:3/4] [DFA]3 [GB] [DFA]2 |[M:1/4] z2 |[M:4/4] [B,A]2 [B,G]2 [B,F]2 [B,G]2 | %7
[M:9/8] [CE]3 c c2- c E2 |[M:4/4] .D2 ^C2 .D2 B2 |[M:7/8] A- A3 [B,G]3 |] %10
V:2
 z4 z2 B2 | z2 G,2 G,2 A,2 | z2 z B, G,2[K:treble] B2 | z2 G,2 G,2 G,2 |[M:3/4] z2 z D D,2 | %5
[M:1/4][K:treble] B2 |[M:4/4][K:bass] z2 G,2 G,2 G,2 |[M:9/8] z3 E [G,E]2- [G,E] C2 | %8
[M:4/4] .[D,B,]2 _B,2 .[D,=B,]2 [D,D]2 |[M:7/8] [D,F,C]- [D,F,C]3 [G,,D,]3 |] %10
V:3
 x8 | G,,8 | z2 G,2 z4[K:treble] | G,,8 |[M:3/4] z2 D,2 z2 |[M:1/4][K:treble] x2 | %6
[M:4/4][K:bass] G,,8 |[M:9/8] z2 G,- G, z z z3 |[M:4/4] x8 |[M:7/8] x7 |] %10
V:4
 x8 | x8 | G,,6[K:treble] z2 | x8 |[M:3/4] D,,6 |[M:1/4][K:treble] x2 |[M:4/4][K:bass] x8 | %7
[M:9/8] C,6- C, z z |[M:4/4] x8 |[M:7/8] x7 |] %10

